X: 32285
T: Pig's
R: jig
M: 6/8
K: Dmixolydian
|:d2d d2A|BAG EDE|d2d d2A|BAG Acc|
d2d d2A|BAG EDE|GEE cAA|d2D D2A:|
|:D2D GEE|cAA dDD|C2C GEE|cAA AGE|
D2D GEE|cAA dDD|GEE cAA|d2D D2A:|
|:d2d d2d|d2d d2D|dAB ABA|GEG GED|
[1d2d d2d|d2d d2D|GEE|cAA|d2D D2A:|
[2d2d c2c|B2B A2A|GEE|cAA|d2D D2A||
|:d2d D2D|c2c C2C|d2d D2D|BAG Acc|
[1d2d D2D|c2c C2C|GEE cAA|d2D D2A:|
[2d2d c2c|B2B A2A|GEE|cAA|d2D D2A||

